src/icons/outline/status/excluded.svg

<svg width="24" height="24" viewBox="0 0 24 24" fill="none" xmlns="http://www.w3.org/2000/svg">
<g clip-path="url(#clip0_4191_622)">
<path fill-rule="evenodd" clip-rule="evenodd" d="M18.1504 9C18.6147 9 18.9998 9.3714 19 9.81934V14.1807C18.9998 14.6286 18.6147 15 18.1504 15H5.84961C5.38532 15 5.00019 14.6286 5 14.1807V9.81934C5.00019 9.3714 5.38532 9 5.84961 9H18.1504ZM6.69922 13.3604H17.3008V10.6396H6.69922V13.3604Z" fill="#3C3B44"/>
<path fill-rule="evenodd" clip-rule="evenodd" d="M12 1C18.0704 1 23 5.92955 23 12C23 18.0704 18.0704 23 12 23C5.92955 23 1 18.0704 1 12C1 5.92955 5.92955 1 12 1ZM12 2.61426C6.8229 2.61426 2.61426 6.8229 2.61426 12C2.61426 17.1771 6.8229 21.3857 12 21.3857C17.1771 21.3857 21.3857 17.1771 21.3857 12C21.3857 6.8229 17.1771 2.61426 12 2.61426Z" fill="#3C3B44"/>
</g>
<defs>
<clipPath id="clip0_4191_622">
<rect width="24" height="24" fill="white"/>
</clipPath>
</defs>
</svg>

<svg xmlns="http://www.w3.org/2000/svg" width="24" height="24" fill="none" viewBox="0 0 24 24"><g fill="currentColor" fill-rule="evenodd" clip-path="url(#a)" clip-rule="evenodd"><path d="M18.15 9c.465 0 .85.371.85.82v4.36c0 .449-.385.82-.85.82H5.85c-.465 0-.85-.371-.85-.82V9.82c0-.449.385-.82.85-.82zM6.7 13.36h10.6v-2.72H6.7z"/><path d="M12 1c6.07 0 11 4.93 11 11s-4.93 11-11 11S1 18.07 1 12 5.93 1 12 1m0 1.614c-5.177 0-9.386 4.209-9.386 9.386S6.823 21.386 12 21.386s9.386-4.209 9.386-9.386S17.177 2.614 12 2.614"/></g><defs><clipPath id="a"><path fill="currentColor" d="M0 0h24v24H0z"/></clipPath></defs></svg>
